assets/icons/google-calender-colorize.svg

<svg width="40" height="40" viewBox="0 0 40 40" fill="none" xmlns="http://www.w3.org/2000/svg">
<g clip-path="url(#clip0_10522_87027)">
<path d="M30.5263 9.4735L21.0527 8.4209L9.4737 9.4735L8.4209 19.9999L9.4735 30.5263L19.9999 31.8421L30.5263 30.5263L31.5789 19.7369L30.5263 9.4735Z" fill="white"/>
<path d="M13.7921 25.8056C13.0053 25.274 12.4605 24.4978 12.1631 23.4714L13.9895 22.7188C14.1553 23.3504 14.4447 23.8398 14.8579 24.1872C15.2685 24.5346 15.7685 24.7056 16.3527 24.7056C16.9501 24.7056 17.4633 24.524 17.8921 24.1608C18.3209 23.7976 18.5369 23.3344 18.5369 22.774C18.5369 22.2004 18.3105 21.7318 17.8579 21.3688C17.4053 21.0058 16.8369 20.824 16.1579 20.824H15.1027V19.0162H16.0499C16.6341 19.0162 17.1263 18.8584 17.5263 18.5426C17.9263 18.2268 18.1263 17.7952 18.1263 17.2452C18.1263 16.7558 17.9473 16.3662 17.5895 16.0742C17.2317 15.7822 16.7789 15.6348 16.2289 15.6348C15.6921 15.6348 15.2657 15.777 14.9499 16.0638C14.6341 16.3506 14.4051 16.7032 14.2605 17.119L12.4527 16.3664C12.6921 15.6874 13.1317 15.0874 13.7763 14.569C14.4211 14.0506 15.2447 13.79 16.2447 13.79C16.9841 13.79 17.6499 13.9322 18.2395 14.219C18.8289 14.5058 19.2921 14.9032 19.6263 15.4084C19.9605 15.9162 20.1263 16.4848 20.1263 17.1162C20.1263 17.761 19.9711 18.3056 19.6605 18.753C19.3499 19.2004 18.9683 19.5424 18.5157 19.782V19.8898C19.1131 20.1398 19.5999 20.5214 19.9841 21.0346C20.3657 21.5478 20.5577 22.161 20.5577 22.8768C20.5577 23.5926 20.3761 24.232 20.0129 24.7926C19.6497 25.3532 19.1471 25.7952 18.5103 26.1162C17.8709 26.4372 17.1525 26.6004 16.3551 26.6004C15.4315 26.603 14.5789 26.3372 13.7921 25.8056Z" fill="#1A73E8"/>
<path d="M25.0003 16.742L23.0055 18.192L22.0029 16.671L25.6003 14.0762H26.9793V26.3156H25.0003V16.742Z" fill="#1A73E8"/>
<path d="M30.5261 39.9997L39.9997 30.5261L35.2629 28.4209L30.5261 30.5261L28.4209 35.2629L30.5261 39.9997Z" fill="#EA4335"/>
<path d="M7.36816 35.2632L9.47336 40H30.526V30.5264H9.47336L7.36816 35.2632Z" fill="#34A853"/>
<path d="M3.1578 0C1.4132 0 0 1.4132 0 3.1578V30.5262L4.7368 32.6314L9.4736 30.5262V9.4736H30.5262L32.6314 4.7368L30.5264 0H3.1578Z" fill="#4285F4"/>
<path d="M0 30.5264V36.8422C0 38.587 1.4132 40 3.1578 40H9.4736V30.5264H0Z" fill="#188038"/>
<path d="M30.5264 9.47336V30.526H40V9.47336L35.2632 7.36816L30.5264 9.47336Z" fill="#FBBC04"/>
<path d="M40 9.4736V3.1578C40 1.413 38.5868 0 36.8422 0H30.5264V9.4736H40Z" fill="#1967D2"/>
</g>
<defs>
<clipPath id="clip0_10522_87027">
<rect width="40" height="40" fill="white"/>
</clipPath>
</defs>
</svg>

<svg xmlns="http://www.w3.org/2000/svg" width="40" height="40" fill="none" viewBox="0 0 40 40"><g clip-path="url(#a)"><path fill="#fff" d="M30.526 9.474 21.053 8.42 9.473 9.474 8.422 20l1.053 10.526L20 31.842l10.526-1.316 1.053-10.79z"/><path fill="#1a73e8" d="M13.792 25.806q-1.182-.796-1.629-2.335l1.826-.752q.25.946.869 1.468.616.52 1.495.519.895 0 1.54-.545a1.74 1.74 0 0 0 .644-1.387 1.72 1.72 0 0 0-.68-1.405q-.679-.545-1.7-.545h-1.054v-1.808h.947q.876 0 1.476-.473.6-.474.6-1.298 0-.734-.537-1.17-.535-.44-1.36-.44-.805 0-1.28.429-.472.431-.688 1.055l-1.808-.753q.358-1.02 1.323-1.797.968-.778 2.469-.779 1.11 0 1.994.429.886.43 1.387 1.19.5.76.5 1.707 0 .967-.466 1.637-.465.67-1.144 1.029v.108q.894.375 1.468 1.145.574.769.574 1.842 0 1.074-.545 1.916a3.8 3.8 0 0 1-1.503 1.323q-.96.483-2.155.484a4.46 4.46 0 0 1-2.563-.794M25 16.742l-1.994 1.45-1.003-1.521 3.597-2.595h1.38v12.24H25z"/><path fill="#ea4335" d="M30.526 40 40 30.526l-4.737-2.105-4.737 2.105-2.105 4.737z"/><path fill="#34a853" d="M7.368 35.263 9.473 40h21.053v-9.474H9.473z"/><path fill="#4285f4" d="M3.158 0A3.157 3.157 0 0 0 0 3.158v27.368l4.737 2.105 4.737-2.105V9.474h21.052l2.105-4.737L30.526 0z"/><path fill="#188038" d="M0 30.526v6.316A3.157 3.157 0 0 0 3.158 40h6.316v-9.474z"/><path fill="#fbbc04" d="M30.526 9.473v21.053H40V9.473l-4.737-2.105z"/><path fill="#1967d2" d="M40 9.474V3.158A3.157 3.157 0 0 0 36.842 0h-6.316v9.474z"/></g><defs><clipPath id="a"><path fill="#fff" d="M0 0h40v40H0z"/></clipPath></defs></svg>
